svg/regular/bx-align-left.svg

<svg xmlns="http://www.w3.org/2000/svg" width="24" height="24"><path d="M4 19h16v2H4zm0-4h11v2H4zm0-4h16v2H4zm0-8h16v2H4zm0 4h11v2H4z"/></svg>

<svg xmlns="http://www.w3.org/2000/svg" width="24" height="24" viewBox="0 0 24 24"><path d="M4 19H20V21H4zM4 15H15V17H4zM4 11H20V13H4zM4 3H20V5H4zM4 7H15V9H4z"/></svg>
